X: 690
T: Jitterbug Waltz
C:Fats Waller
B: jims roots
M:3/4
L:1/8
Q: 1/4=100
K:D
V:1 
%TablEdited by  Mike Stangeland
%310
|: "Dmaj7"zd fc eB | dA cG BF | AE GD FC | EB, DA, CA, | "G9"B,6 |
z4 (3B,D=F | A4 zB | =F6 | "Dmaj7"=zd fc eB | dA cG BF | AE GD FC | EB, DA, CA, |
"B7sus4"B,6 | z4 (3B,^DF | "B7"A4 AB | F6 | "E7"zB, DB, DB, | DB, DB, DB, | F2 F2 z2 | z6 |
"Gm"z^A, DA, DA, | D^A, DA, DA, | "C7(#11)"F6 | z6 | "E7"zB, DB, DB, | DB, DB, DB, |
|[1 C2 D2 ^D2 | E2 z2 C2 | "F#m7"A,6 | "Fmaj7"z4 =c^A | "Em11"=c^A =FG =A2 | "Bbmaj7(#11)"A6:|
V:2 B6 | F6 | "Dmaj7"D6 | "Gm7"G,A, ^A,=C DE | "Dmaj7"F2 FA F2 | "A7"A,6 | "Dmaj7"F6 |
% abcbook-tune_id 6298c25d36bcf54694b141aa


% abcbook-boost 0
% abcbook-tablature 
% abcbook-transpose 
% abcbook-lastupdated 1654178399213
% abcbook-soundfonts 
% abcbook-repeats 1


